X:1
T:Long temps y a
T:François Dulot
T:Source : Second livre contenant 31 chansons eslevées---Paris---P.Attaignant---1535. Editor : André Vierendeels (22/12/17). Notes : Original clefs : C1, C4, C4, F3 Original note values have been halved Editorial accidentals above the staff Square bracket indicates ligature
T:Long temps y a
T:©
T:©
T:©
C:François Dulot
Z:©
%%score [ 1 [ 2 3 ] 4 ]
L:1/8
Q:1/4=120
M:2/2
K:C
V:1 treble nm="Alto" snm="A"
V:2 treble-8 nm="Tenor 1" snm="T 1"
V:3 treble-8 nm="Tenor 2" snm="T 2"
V:4 bass nm="Bass" snm="B"
V:1
 A8 | A4 A2 GF | E4 z2 E2 | G2 G2 A2 B2 | c3 B A2 G2- | GFED E4 | D8 | z2 A2 G2 F2 | E2 G2 A2 B2 | %9
w: Long|temps y _ _|a que|ie vis en es-|||poir,|et que ri-|gueur a des- sus|
 c3 B AG B2- | B2 A4 G2 | A4 z2 A2 | A2 A2 E4 | z2 E2 G3 A | B2 c4 B2 | A3 G F2 E2- | E2 D4 C2 | %17
w: moy _ _ _ _|_ _ po-|voir, mais|si ia- mais|ie ren- con-|tre'al- le- *||* gean- *|
 D4 z4 | z4 z2 E2 | F2 G2 A4- | A2 A2 G2 E2 | F4 F4 | E2 F2 G2 A2- | A2 G2 A4 | z4 A4- | A4 A4 | %26
w: ce,|ie|luy di- ray:|_ ma da- me|ve- nez|veoir, _ _ _|_ _ _|ri-|* gueur|
 A2 GF E4 | z2 E2 G2 G2 | A2 B2 c3 B | A2 G3 FED | E4 D4 | z2 A2 A2 A2 | E4 z2 E2 | G3 A B2 c2- | %34
w: me _ _ bat,|faic- tes moy|la ven- gean- *||* ce,|ri- gueur me|bat, faic-|tes moy la ven-|
 c2 B2 A3 G | F2 E4 D2- |"^#" D2 C2 D4 |] %37
w: |* * gean-|* * ce.|
V:2
 z4 z2 A2 | F2 D2 A4 | z2 A2 c2 c2 | d2 e2 f4 | e2 c2 d2 e2- | e2 d4 c2 | d4 z4 | z4 z2 d2 | %8
w: Long|temps y a|que ie vis|en es- *|||poir,|et|
 c2 B2 A2 G2 | A3 B c2 d2 | f4 e3 d | c2 d2 A4 | z2 A2 c3 d | e4 z2 e2 | e2 e2 f2 d2 | c2 A2 c3 B | %16
w: que ri- gueur a|des- * * sus|moy _ _|_ po- voir,|mais si ia-|mais, mais|si ia- mais ie|ren- con- tre'al- le-|
 A2 G2 A4 | z2 A2 B2 c2 | d3 d c2 A2 | c2 B2 A4- | A4 z2 G2 | F2 D2 F3 G | A4 E4- | E4 z2 A2 | %24
w: gean- * ce,|ie luy di-|ray: ma da- me|ve- nez veoir,|_ ma|da- me ve- *|nez veoir,|_ ri-|
 F2 D2 A4 | z2 A2 F2 D2 | A4 z2 A2 | c2 c2 d2 e2 | f4 e2 c2 | d2 e3 d d2- |"^#" d2 c2 d4 | %31
w: gueur me bat,|ri- gueur me|bat, faic-|tes moy la ven-||* * * gean-||
 A4 z2 A2 | c3 d e4 | z2 e2 e2 e2 | f2 d2 c2 A2 | c3 B A2 G2 | A4 A4 |] %37
w: ce, ri-|gueur me bat,|faic- tes moy|la ven gean- *||* ce.|
V:3
 z2 A2 F2 D2 | A4 z2 A2 | c6 A2 | B4 c2 d2 | G2 AG AB c2- | c2 B2 A4 |"^#" z2 A2 G2 F2 | %7
w: Long temps y|a que|ie vis|en es- *||* * poir,|et que ri-|
 E2 D2 E2 F2 | G2 E4 D2 | E2 c4 B2 | c2 d2 B4 | A8 | z2 A2 A2 A2 | E4 z2 E2 | G2 G2 A2 B2 | %15
w: gueur a des- *|sus moy po-|voir, des- sus|_ moy po-|voir,|mais si ia-|mais, ie|ren- con- tr'al- le-|
 c3 B A2 G2- | GFED E4 | D4 z4 | z8 | z8 | z2 A2 B2 c2 | d6 d2 | c2 A2 c4 | B4 A4- | A4 z2 A2 | %25
w: gean- * * *||ce,|||ie luy di-|ray: me|da- me ve-|nez veoir,|_ ri-|
 F2 D2 A4 | z2 A2 c4- | c2 A2 B4 | c2 d2 G2 AG | AB c4 B2 | A4 D4- | D4 z2 A2 | A2 A2 E4 | %33
w: gueur me bat,|faic- tes|_ moy la|ven- * * * *||gean- ce,|_ ri-|gueur me bat,|
 z2 E2 G2 G2 | A2 B2 c3 B | A2 G3 FED | E4 D4 |] %37
w: faic- tes moy|la ven- gean- *||* ce.|
V:4
 z8 | z2 A,2 F,2 D,2 | A,6 A,2 | G,2 G,2 F,2 D,2 | C,2 F,3 E, C,2 | D,4 A,,4 | D,4 z2 A,2 | %7
w: |Long temps y|a que|ie vis en es-|||poir, et|
 G,2 F,2 E,2 D,2 | E,3 D, C,2 B,,2 | A,,2 A,2 A,2 G,2 | F,2 D,2 E,4 | A,,2 D,2 D,2 D,2 | %12
w: que ri- gueur a|des- sus moy po-|voir, a des- sus|moy po- *|voir, mais si ia-|
"^#" A,,4 z2 A,,2 | C,3 D, E,4- | E,2 C,2 F,2 G,2 | A,2 F,3 E, C,2 | D,2 B,,2 A,,4 | D,4 z2 E,2 | %18
w: mais, mais|si ia- mais|_ ie rencon- tr'al-|le- gean- * *||ce, ie|
 F,2 G,2 A,4- | A,2 G,2 F,2 D,2 | F,4 E,4 | D,8 | z2 D,2 C,2 A,,2 | E,2 E,2 A,,4 | z2 A,2 F,2 D,2 | %25
w: luy di- ray:|_ ma da- me|ve- nez|veoir,|ma da- me|ve- nez veoir,|ri- gueur me|
 A,4 z2 A,2 | F,2 D,2 A,4- | A,2 A,2 G,2 G,2 | F,2 D,2 C,2 F,2- | F,E, C,2 D,4 | A,,4 z2 D,2 | %31
w: bat, ri-|gueur me bat,|_ faic- tes moy|la ven- gean- *||ce, ri-|
 D,2 D,2 A,,4 | z2 A,,2 C,3 D, | E,6 C,2 | F,2 G,2 A,2 F,2- | F,E, C,2 D,2 B,,2 | A,,4 D,4 |] %37
w: gueur me bat,|faic- tes moy|la ven-|gean- * * *||* ce.|

